www/assets/icons/install_desktop.svg

<svg xmlns="http://www.w3.org/2000/svg" width="24" height="24" viewBox="0 0 24 24" fill='currentColor'><path d="M20 17H4V5h8V3H4c-1.11 0-2 .89-2 2v12a2 2 0 0 0 2 2h4v2h8v-2h4c1.1 0 2-.9 2-2v-3h-2z"/><path d="m17 14 5-5-1.41-1.41L18 10.17V3h-2v7.17l-2.59-2.58L12 9z"/></svg>

<svg width="24" height="24" viewBox="0 0 24 24" xmlns="http://www.w3.org/2000/svg" fill='currentColor'><path d="M20 17H4V5H12V3H4C2.89 3 2 3.89 2 5V17C2 18.1 2.89 19 4 19H8V21H16V19H20C21.1 19 22 18.1 22 17V14H20V17Z"/><path d="M17 14L22 9L20.59 7.59L18 10.17V3H16V10.17L13.41 7.59L12 9L17 14Z"/></svg>
